X:314
T:Tickle Her Leg with the Barley Straw
R:jig
H:See also #313.
D:Sharon Shannon
Z:id:hn-jig-314
M:6/8
K:Bdor
DFF FEF|D2B, B,CD|CEE EFD|~C3 A,B,C|
DCD EDE|FEF ded|BAF FEF|1 D2B, B,2C:|2 D2B, B,dB||
A2F FdB|A2F FdB|A2F FEF|D2B, B,dB|
A2F FdB|A2F FBc|dcB cBA|~B3 B2c|
dcB cBA|B2A FBc|dcB cBA|~B3 B2c|
dcB cBA|B2A F2E|FGA B2c|B3 d3||

